X:1
T:Si Me Quieres Escribir
M:4/4
L:1/8
K:Bb
 GG| gg gf g3 f-| g3 fe dc =B| c2 G2 cd ef| g g/2g/2 gf g2| GG| gg gf g3 _a-|\
 b3 _ag fe d| cc cd ec dB| cc cc B3| B| _A3 A G2 G2-|
M:2/4
 G3 z|
M:4/4
 c2 c2 ce dc| B2 B2 _A2 A2| _Ac BA| G2 G3- G z2| z4 z2||

